X:453
T:The Black Haired Darling
N:"Airily" "1st Setting"
N:Irish title: an ceann du.b .dileas
B:O'Neill's 453
Z:Transcribed by henrik.norbeck@mailbox.swipnet.se
M:6/8
L:1/8
K:D
A/A/Bc ddg|f3/2e/f/g/ .f.e.d|cAg .f.e.d|cA.d D2 D/E/|
.F.F/.G/.A/.B/ cAA|~d3/2e/f/g/ ~f.e.d|cA AG/F/ G3/2B/A/G/|~FD.D D3||
.Dd/e/f/g/ a2 a|aag f2 e|f/f/fg Ta2 g|~fef D2 D/E/|
.F.F/.G/.A/.B/ cAA|.d.d/.e/.f/.g/ fed|cA AG/F/ G3/2B/A/G/|~FD.D D3||
